lib/assets/icons/svg/outlined-finance-cards.svg

<svg viewBox="0 0 24 24" xmlns="http://www.w3.org/2000/svg">
  <path  d="M 3.25 19.05 C 2.284 19.039 1.505 18.256 1.5 17.29 L 1.5 8.89 C 1.505 7.924 2.284 7.141 3.25 7.13 L 14.85 7.13 C 15.822 7.13 16.61 7.918 16.61 8.89 L 16.61 17.29 C 16.554 18.253 15.774 19.016 14.81 19.05 Z M 14.85 8.13 L 3.25 8.13 C 2.834 8.135 2.5 8.474 2.5 8.89 L 2.5 10.33 L 15.61 10.33 L 15.61 8.89 C 15.61 8.47 15.27 8.13 14.85 8.13 Z M 2.5 17.29 C 2.505 17.707 2.843 18.045 3.26 18.05 L 14.79 18.05 C 15.227 18.031 15.58 17.686 15.61 17.25 L 15.61 11.33 L 2.5 11.33 Z M 14.17 13.21 L 3.94 13.21 C 3.664 13.21 3.44 12.986 3.44 12.71 C 3.445 12.436 3.666 12.215 3.94 12.21 L 14.17 12.21 C 14.444 12.215 14.665 12.436 14.67 12.71 C 14.67 12.986 14.446 13.21 14.17 13.21 Z M 8.77 15.16 L 3.94 15.16 C 3.666 15.155 3.445 14.934 3.44 14.66 C 3.44 14.384 3.664 14.16 3.94 14.16 L 8.77 14.16 C 9.046 14.16 9.27 14.384 9.27 14.66 C 9.27 14.936 9.046 15.16 8.77 15.16 Z M 19.75 16.41 L 18 16.41 C 17.726 16.405 17.505 16.184 17.5 15.91 C 17.5 15.634 17.724 15.41 18 15.41 L 19.75 15.41 C 20.166 15.405 20.5 15.066 20.5 14.65 L 20.5 8.64 L 17.83 8.64 C 17.554 8.64 17.33 8.416 17.33 8.14 C 17.33 7.864 17.554 7.64 17.83 7.64 L 20.5 7.64 L 20.5 6.25 C 20.495 5.834 20.156 5.5 19.74 5.5 L 8.15 5.5 C 7.819 5.456 7.51 5.674 7.44 6 C 7.38 6.271 7.111 6.442 6.84 6.38 C 6.57 6.325 6.398 6.059 6.46 5.79 C 6.621 4.98 7.368 4.423 8.19 4.5 L 19.75 4.5 C 20.714 4.505 21.495 5.286 21.5 6.25 L 21.5 14.65 C 21.5 15.618 20.718 16.404 19.75 16.41 Z M 19.12 10.52 L 17.83 10.52 C 17.554 10.52 17.33 10.296 17.33 10.02 C 17.33 9.744 17.554 9.52 17.83 9.52 L 19.12 9.52 C 19.396 9.52 19.62 9.744 19.62 10.02 C 19.62 10.296 19.396 10.52 19.12 10.52 Z"/>
</svg>

<svg xmlns="http://www.w3.org/2000/svg" viewBox="0 0 24 24"><path d="M3.25 19.05a1.77 1.77 0 0 1-1.75-1.76v-8.4a1.77 1.77 0 0 1 1.75-1.76h11.6c.972 0 1.76.788 1.76 1.76v8.4a1.87 1.87 0 0 1-1.8 1.76zm11.6-10.92H3.25a.76.76 0 0 0-.75.76v1.44h13.11V8.89a.76.76 0 0 0-.76-.76zM2.5 17.29a.77.77 0 0 0 .76.76h11.53a.86.86 0 0 0 .82-.8v-5.92H2.5zm11.67-4.08H3.94a.5.5 0 0 1-.5-.5.51.51 0 0 1 .5-.5h10.23a.51.51 0 0 1 .5.5.5.5 0 0 1-.5.5zm-5.4 1.95H3.94a.51.51 0 0 1-.5-.5.5.5 0 0 1 .5-.5h4.83a.5.5 0 0 1 0 1zm10.98 1.25H18a.51.51 0 0 1-.5-.5.5.5 0 0 1 .5-.5h1.75a.76.76 0 0 0 .75-.76V8.64h-2.67a.5.5 0 0 1 0-1h2.67V6.25a.76.76 0 0 0-.76-.75H8.15a.64.64 0 0 0-.71.5.5.5 0 0 1-.6.38.49.49 0 0 1-.38-.59A1.61 1.61 0 0 1 8.19 4.5h11.56a1.76 1.76 0 0 1 1.75 1.75v8.4a1.76 1.76 0 0 1-1.75 1.76zm-.63-5.89h-1.29a.5.5 0 0 1 0-1h1.29a.5.5 0 0 1 0 1z"/></svg>
